resources/svg/save-3-line.svg

<svg fill="currentColor" viewBox="0 0 24 24" xmlns="http://www.w3.org/2000/svg"><path d="M18 19H19V6.82843L17.1716 5H16V9H7V5H5V19H6V12H18V19ZM4 3H18L20.7071 5.70711C20.8946 5.89464 21 6.149 21 6.41421V20C21 20.5523 20.5523 21 20 21H4C3.44772 21 3 20.5523 3 20V4C3 3.44772 3.44772 3 4 3ZM8 14V19H16V14H8Z"/></svg>

<svg xmlns="http://www.w3.org/2000/svg" viewBox="0 0 24 24" fill="currentColor">
    <g>
        <path fill="none" d="M0 0h24v24H0z"/>
        <path d="M18 19h1V6.828L17.172 5H16v4H7V5H5v14h1v-7h12v7zM4 3h14l2.707 2.707a1 1 0 0 1 .293.707V20a1 1 0 0 1-1 1H4a1 1 0 0 1-1-1V4a1 1 0 0 1 1-1zm4 11v5h8v-5H8z"/>
    </g>
</svg>
